X:1
T:Ecco l'alba
T:Ecco l'alba
T:Piero Benedetti
T:Source : Musische di P.Benedetti---Libro secondo---Venetia---R.Amadino---1613. Editor : André Vierendeels (05/06/15).
T:Notes : Original clefs : C1, F4 Editorial accidentals above the staff Figures in BC are notated in original print Composer called "Pietro" in original edition
C:Piero Benedetti
%%score 1 2
L:1/8
Q:1/4=70
M:4/4
K:C
V:1 treble nm="Soprano" snm="S"
V:2 bass nm="BC" snm="BC"
V:1
 z4 d2 A2 | BA B/A/B/c/ d2 c2- | cd B2 c4 | c4 c2 c2 | e6 e/d/c/B/ | B3 A A4 | %6
w: Ec- co|l'al- * * * * * ba, Ec-|* co ri- splen-|de Fe- bo'in|Ciel coi _ _ _|rag- gi d'o-|
w: Ve- d'i|fio- * * * * * ri, all'|_ er- be se-|no, co- me|ri- don- * * *|d'o- gn'in- tor-|
w: Chia- ro|fon- * * * * * t'e cri-|* * stal- li-|no, len- to|scor- re _ _ _|mor- mo- ran-|
w: Ve- drai|l'Al- * * * * * ba,- al|_ tuo'ap- pa- ri-|re, rad- dop-|piar il _ _ _|suo splen- do-|
w: Mi- re-|ra- * * * * * i pur|_ en- ci'all' on-|de, del bel|fon te'o _ _ _|mio Te- so-|
w: Bel- la|Fil- * * * * * li a-|* ni- ma'e vi-|ta, del mio|cor O _ _ _|d'i miei prie-|
"^-natural""^-natural" A4 c2 c2 | d6 d2- | dd G2 A4 | A4 e2 e2 | ed cB A2 A2 | A3 B G4 | %12
w: ro, e d'Au-|gei mu-|* si- co co-|ro, vez- zo-|set- * * * * to|l'a- ria fen-|
w: no, mi- ra'il|fag- gio'il-|_ mi- ro'e l'or-|no, ver- deg-|giar _ _ _ _ fre-|sco'e a- me-|
w: do, qui- gl'a-|mor nu|_ di dan- zan-|do, fan suo|seg- * * * * gio'al-|mo'e di- vi-|
w: re, ve- dra'il|Sol scin-|* til- lar so-|le, no- vi|rai, _ _ _ _ no-|vi co- lo-|
w: ro, tua bel-|ta- de'il|_ bel crin d'o-|ro, che per|me _ _ _ _ pie-|ta- de'as- con-|
w: ghi, deh sde-|gno- s'ah|_ non si nie-|gha, al mio|cor _ _ _ _ _|cor- te- se'ai-|
[M:2/4] G4 |:[M:4/4] d2 A2 B4 | B2 c4 dd | e4 e4 | B2 B2 d4- | d2 B2 A3 B | G4 !fermata!G4 :| %19
w: de,|mi- ra Fil-|li, O di bel|can- to,|pre- gio sol|_ dell' au- reo|van- to.|
w: no,|sen- t'in- gra-|ti zef- fi- *|ret- ti|co- me ri-|* don vez- zo-|et- ti.|
w: no,|a che tar-|di? E- sei mio|co- re|a trar lie-|* t'e fe- li-|cio- re.|
w: ri,|u- drai fuo-|ra gl'Ar- bos- *|cel- li,|gag- gi- ar|_ fra- lor gl'Au-|gel- li.|
w: de,|io can- tan-|do quel do- *|lo- re|sfo- ge- ro|_ che strug- g'il|co- re.|
w: ra,|se pie- to-|sa io per tuo|vi- vo,|se sde- gno-|* sa'il mor- te'ar-|ri- ve.|
V:2
 z4 G,2 ^F,2 | G,6 E,2 | F,2 G,2 C,4 | C,4 A,,2 A,,2 | ^C,4 D,4 |"^4""^#""^#" E,2 E,2 A,,4 | %6
"^#" A,,4 A,2 G,2 | ^F,4 G,4 |"^#" E,2 B,,2 D,4 |"^#" D,4 A,,4 | B,,4 C,4 |"^4""^#" D,2 D,2 G,,4 | %12
[M:2/4] G,,4 |:[M:4/4] G,2 ^F,2 G,4 | G,2 E,2 F,2 D,2 | C,4 C,4 | G,,2 G,,2 B,,2 A,,G,, | %17
"^4""^#" ^F,,2 G,,2 D,2 D,2 | G,,4 !fermata!G,,4 :| %19

